packages/kaspersky-hexa-ui-icons/src/iconsSVGs/24/Usb.svg

<svg width="24" height="24" viewBox="0 0 24 24" fill="none" xmlns="http://www.w3.org/2000/svg">
<path d="M12.3213 1.23788C12.1614 1.02227 11.8386 1.02227 11.6787 1.23788L9.3561 4.36941C9.16033 4.63336 9.34874 5.00769 9.67738 5.00769H11V12.9999H8V10.9908C8.72798 10.6244 9.22742 9.87048 9.22742 8.99991C9.22742 7.7697 8.23014 6.77243 6.99994 6.77243C5.76974 6.77243 4.77246 7.7697 4.77246 8.99991C4.77246 9.87053 5.27195 10.6245 6 10.9909V12.9999C6 14.1045 6.89543 14.9999 8 14.9999H11V17.8952C10.0457 18.2885 9.37402 19.2278 9.37402 20.324C9.37402 21.7743 10.5497 22.9499 11.9999 22.9499C13.4502 22.9499 14.6259 21.7743 14.6259 20.324C14.6259 19.2278 13.9542 18.2886 13 17.8952V14.9999H16C17.1046 14.9999 18 14.1045 18 12.9999V10.9999C18.5523 10.9999 19 10.5522 19 9.99991V7.99991C19 7.44762 18.5523 6.99991 18 6.99991H16C15.4477 6.99991 15 7.44762 15 7.99991V9.99991C15 10.5522 15.4477 10.9999 16 10.9999V12.9999H13V5.00769H14.3226C14.6513 5.00769 14.8397 4.63336 14.6439 4.36941L12.3213 1.23788Z" fill="black"/>
</svg>

<svg xmlns="http://www.w3.org/2000/svg" width="24" height="24" fill="none" viewBox="0 0 24 24"><path fill="#000" d="M12.3213 1.2379c-.1599-.2156-.4827-.2156-.6426 0L9.3561 4.3694c-.1958.264-.0074.6383.3213.6383H11v7.9922H8v-2.0091c.728-.3664 1.2274-1.1203 1.2274-1.9909 0-1.2302-.9973-2.2275-2.2275-2.2275S4.7725 7.7697 4.7725 9c0 .8706.4995 1.6246 1.2275 1.991V13c0 1.1046.8954 2 2 2h3v2.8953c-.9543.3933-1.626 1.3326-1.626 2.4288 0 1.4503 1.1757 2.6259 2.6259 2.6259s2.626-1.1756 2.626-2.6259c0-1.0962-.6717-2.0354-1.6259-2.4288V15h3c1.1046 0 2-.8954 2-2v-2c.5523 0 1-.4477 1-1V8c0-.5523-.4477-1-1-1h-2c-.5523 0-1 .4477-1 1v2c0 .5523.4477 1 1 1v2h-3V5.0077h1.3226c.3287 0 .5171-.3743.3213-.6383z"/></svg>
